packages/icons/src/lib/svgs/download.svg

<svg
        aria-hidden="true"
        data-testid="test-icon"
        fill="none"
        
        viewBox="0 0 24 24"
        
        xmlns="http://www.w3.org/2000/svg"
        
    >
        <title>download icon</title>
        <path
            d="M19.5 13H16.5938L18.0625 11.5625C19 10.625 18.3125 9 17 9H15V5.5C15 4.6875 14.3125 4 13.5 4H10.5C9.65625 4 9 4.6875 9 5.5V9H7C5.65625 9 4.96875 10.625 5.9375 11.5625L7.375 13H4.5C3.65625 13 3 13.6875 3 14.5V18.5C3 19.3438 3.65625 20 4.5 20H19.5C20.3125 20 21 19.3438 21 18.5V14.5C21 13.6875 20.3125 13 19.5 13ZM7 10.5H10.5V5.5H13.5V10.5H17L12 15.5L7 10.5ZM19.5 18.5H4.5V14.5H8.875L10.9375 16.5625C11.5 17.1562 12.4688 17.1562 13.0312 16.5625L15.0938 14.5H19.5V18.5ZM16.75 16.5C16.75 16.9375 17.0625 17.25 17.5 17.25C17.9062 17.25 18.25 16.9375 18.25 16.5C18.25 16.0938 17.9062 15.75 17.5 15.75C17.0625 15.75 16.75 16.0938 16.75 16.5Z"
            fill="currentColor"
        />
    </svg>

<svg aria-hidden="true" data-testid="test-icon" fill="currentColor" viewBox="0 0 24 24" xmlns="http://www.w3.org/2000/svg"><path d="M19.5 13h-2.906l1.468-1.438C19 10.626 18.313 9 17 9h-2V5.5c0-.813-.688-1.5-1.5-1.5h-3A1.5 1.5 0 009 5.5V9H7c-1.344 0-2.031 1.625-1.063 2.563L7.375 13H4.5A1.5 1.5 0 003 14.5v4c0 .844.656 1.5 1.5 1.5h15a1.5 1.5 0 001.5-1.5v-4c0-.813-.688-1.5-1.5-1.5zM7 10.5h3.5v-5h3v5H17l-5 5-5-5zm12.5 8h-15v-4h4.375l2.063 2.063a1.453 1.453 0 002.093 0l2.063-2.063H19.5v4zm-2.75-2c0 .438.313.75.75.75a.74.74 0 00.75-.75.76.76 0 00-.75-.75.74.74 0 00-.75.75z"/></svg>
